ui/public/images/1j1s/plus-jaune.svg

<svg width="111" height="111" viewBox="0 0 111 111" fill="none" xmlns="http://www.w3.org/2000/svg">
<path d="M89.536 56.6965C91.4057 57.4341 93.5275 55.7836 94.049 53.8433C94.5705 51.903 93.9748 49.8602 93.3779 47.9372C92.7423 45.8883 92.1124 43.8394 91.4768 41.7905C91.3055 41.2354 91.1116 40.6515 90.6762 40.2649C90.1558 39.8089 89.4034 39.7386 88.7077 39.7031C65.6251 38.4107 42.6145 42.465 19.8494 46.499C18.9521 46.6612 18.0089 46.8343 17.2956 47.4148C15.9726 48.497 15.9583 50.4937 16.1409 52.1958C16.6893 57.2506 17.9575 62.227 19.8902 66.9248C20.2857 67.8816 20.7548 68.8904 21.6395 69.4299C22.4277 69.9113 23.3974 69.9381 24.3219 69.9132C30.4739 69.7523 36.4536 68.0035 42.3865 66.3685C57.8967 62.0964 73.605 58.5452 89.443 55.7256" fill="#FFE817"/>
<path d="M51.2815 90.831C50.5439 92.7007 52.1943 94.8225 54.1346 95.344C56.0749 95.8655 58.1177 95.2698 60.0407 94.6729C62.0896 94.0373 64.1385 93.4074 66.1874 92.7718C66.7425 92.6005 67.3264 92.4066 67.7131 91.9712C68.169 91.4509 68.2393 90.6984 68.2748 90.0027C69.5672 66.9201 65.5129 43.9095 61.4789 21.1444C61.3168 20.2471 61.1436 19.3039 60.5688 18.5907C59.4868 17.2562 57.49 17.2476 55.7879 17.4303C50.7331 17.9787 45.7567 19.2468 41.0589 21.1795C40.1021 21.575 39.0933 22.0442 38.5538 22.9345C38.0724 23.7171 38.0455 24.6924 38.0705 25.617C38.2314 31.769 39.9801 37.7487 41.6152 43.6816C45.8872 59.1918 49.4384 74.9001 52.258 90.7381" fill="#FFE817"/>
</svg>

<svg xmlns="http://www.w3.org/2000/svg" width="111" height="111" fill="none" viewBox="0 0 111 111"><path fill="#ffe817" d="M89.536 56.697c1.87.737 3.992-.913 4.513-2.854.521-1.94-.074-3.983-.671-5.906-.636-2.049-1.266-4.098-1.901-6.146-.172-.556-.365-1.14-.8-1.526-.521-.456-1.274-.526-1.97-.562-23.082-1.292-46.092 2.762-68.858 6.796-.897.162-1.84.335-2.553.916-1.323 1.082-1.338 3.079-1.155 4.78a54.1 54.1 0 0 0 3.75 14.73c.395.957.864 1.965 1.749 2.505.788.481 1.757.508 2.682.483 6.152-.16 12.132-1.91 18.065-3.544a521 521 0 0 1 47.056-10.643"/><path fill="#ffe817" d="M51.282 90.831c-.738 1.87.912 3.992 2.853 4.513 1.94.522 3.983-.074 5.906-.671 2.049-.636 4.097-1.266 6.146-1.901.556-.172 1.14-.365 1.526-.8.456-.521.526-1.274.562-1.97 1.292-23.082-2.762-46.092-6.796-68.858-.162-.897-.335-1.84-.91-2.553-1.082-1.335-3.079-1.343-4.781-1.16a54.1 54.1 0 0 0-14.73 3.749c-.956.395-1.965.864-2.504 1.755-.482.782-.509 1.757-.483 2.682.16 6.152 1.91 12.132 3.544 18.065a521 521 0 0 1 10.643 47.056"/></svg>
